X:315
T: Wandering Minstrel [The]
M: 6/8
L: 1/8
R: Jig
K: D
B|ADD BAF|Ade fdB|ADD BAG|F/G/AF GFE|
ADD BAF|Ade fdB|AdB AFE|FDD D2 :|
g|fef ede|fdB AFA|BdB AFd|AGF E2g|
~f3 ede|fdB AFA|BdB AFE|FDD D2 :|
e|fef afd|gbe gbe|~f3 afd|ceA ceA|
fef afd|gbe gbe|~f3 ede|fdc d2 :|
